flaticon/transportation/tractor-1.svg

<svg xmlns="http://www.w3.org/2000/svg" width="32" height="32" viewBox="0 0 24 24">
    <path d="M 22.320312 17.675781 L 22.320312 16.746094 C 22.320312 14.6875 20.738281 12.945312 18.664062 12.648438 L 18.664062 8.214844 L 17.449219 8.214844 L 17.449219 4.730469 L 14.980469 2.347656 L 14.269531 3.085938 L 16.429688 5.164062 L 16.429688 8.214844 L 15.214844 8.214844 L 15.214844 12.40625 L 14.074219 12.332031 C 13.390625 9.84375 11.050781 8.421875 11.050781 8.421875 L 4.003906 8.421875 L 4.003906 1.019531 L 10.921875 1.019531 L 10.921875 0 L 2.980469 0 L 2.980469 13.539062 C 1.207031 14.492188 0 16.324219 0 18.421875 C 0 21.496094 2.589844 24 5.769531 24 C 8.195312 24 10.277344 22.546875 11.128906 20.492188 L 17.90625 20.492188 C 18.003906 22.042969 19.332031 23.273438 20.953125 23.273438 C 22.632812 23.273438 24 21.945312 24 20.316406 C 24 19.164062 23.316406 18.164062 22.320312 17.675781 Z M 16.234375 9.234375 L 17.644531 9.234375 L 17.644531 14.082031 L 16.234375 14.082031 Z M 5.769531 22.980469 C 3.152344 22.980469 1.019531 20.933594 1.019531 18.421875 C 1.019531 15.910156 3.152344 13.863281 5.769531 13.863281 C 8.390625 13.863281 10.523438 15.910156 10.523438 18.421875 C 10.523438 20.933594 8.390625 22.980469 5.769531 22.980469 Z M 11.441406 19.472656 C 11.507812 19.132812 11.542969 18.78125 11.542969 18.421875 C 11.542969 15.34375 8.953125 12.84375 5.769531 12.84375 C 5.15625 12.84375 4.558594 12.9375 4.003906 13.109375 L 4.003906 9.441406 L 10.738281 9.441406 C 11.945312 10.289062 12.804688 11.507812 13.171875 12.886719 C 13.300781 13.378906 13.367188 13.890625 13.367188 14.40625 L 13.367188 19.472656 Z M 18.03125 19.472656 L 14.390625 19.472656 L 14.390625 14.40625 C 14.390625 14.058594 14.363281 13.710938 14.3125 13.371094 L 15.214844 13.429688 L 15.214844 15.101562 L 18.664062 15.101562 L 18.664062 13.683594 C 19.742188 13.886719 20.621094 14.597656 21.039062 15.53125 L 19.378906 15.53125 L 19.378906 16.554688 L 21.292969 16.554688 C 21.296875 16.617188 21.296875 17.378906 21.296875 17.378906 C 21.183594 17.367188 21.070312 17.359375 20.949219 17.359375 C 19.574219 17.359375 18.40625 18.25 18.03125 19.472656 Z M 20.953125 22.25 C 19.832031 22.25 18.921875 21.382812 18.921875 20.316406 C 18.921875 19.25 19.832031 18.382812 20.949219 18.382812 C 22.070312 18.382812 22.980469 19.25 22.980469 20.316406 C 22.980469 21.382812 22.070312 22.25 20.953125 22.25 Z M 20.953125 22.25"/>
    <path d="M 6.28125 17.128906 L 5.261719 17.128906 L 5.261719 17.910156 L 4.429688 17.910156 L 4.429688 18.933594 L 5.261719 18.933594 L 5.261719 19.714844 L 6.28125 19.714844 L 6.28125 18.933594 L 7.113281 18.933594 L 7.113281 17.910156 L 6.28125 17.910156 Z M 6.28125 17.128906"/>
</svg>

<svg xmlns="http://www.w3.org/2000/svg" width="32" height="32" viewBox="0 0 24 24">
    <path d="M22.32 17.676v-.93c0-2.058-1.582-3.8-3.656-4.098V8.215H17.45V4.73L14.98 2.348l-.71.738 2.16 2.078v3.05h-1.215v4.192l-1.14-.074c-.684-2.488-3.024-3.91-3.024-3.91H4.004V1.02h6.918V0H2.98v13.54C1.207 14.491 0 16.323 0 18.421 0 21.496 2.59 24 5.77 24c2.425 0 4.507-1.453 5.359-3.508h6.777c.098 1.551 1.426 2.781 3.047 2.781 1.68 0 3.047-1.328 3.047-2.957 0-1.152-.684-2.152-1.68-2.64zm-6.086-8.442h1.41v4.848h-1.41zM5.77 22.98c-2.618 0-4.75-2.046-4.75-4.558s2.132-4.559 4.75-4.559c2.62 0 4.753 2.047 4.753 4.559S8.391 22.98 5.77 22.98zm5.671-3.507c.067-.34.102-.692.102-1.051 0-3.078-2.59-5.578-5.773-5.578a5.98 5.98 0 0 0-1.766.265V9.441h6.734a6.161 6.161 0 0 1 2.434 3.446c.129.492.195 1.004.195 1.52v5.066zm6.59 0h-3.64v-5.067c0-.347-.028-.695-.079-1.035l.903.059v1.672h3.45v-1.418a3.257 3.257 0 0 1 2.374 1.847h-1.66v1.024h1.914c.004.062.004.824.004.824a3.331 3.331 0 0 0-.348-.02c-1.375 0-2.543.891-2.918 2.114zm2.922 2.777c-1.121 0-2.031-.867-2.031-1.934 0-1.066.91-1.933 2.027-1.933 1.121 0 2.031.867 2.031 1.933 0 1.067-.91 1.934-2.027 1.934zm0 0"/>
    <path d="M6.281 17.129h-1.02v.781H4.43v1.024h.832v.78h1.02v-.78h.831V17.91h-.832zm0 0"/>
</svg>
